X: 41825
T: Village
R: jig
M: 6/8
K: Gmajor
|:~g3 ~f3|efe dBd|ecA ABd|efe def|~g3 ~f3|efe dBd|~g3 ~a3|bgg g2d:|
|:gdB GBd|gdB ~d3|ecA ABd|efe def|gdB GBd|gdB ~d3|~g3 ~a3|gba g2d:|

